X:1
T:Dicey Reilly
M:4/4
L:1/8
K:A
 z4 z2 z A| AA AA AB cd| BG EG A3 B| BB BE Bc de| c/2 B3/2 A/2 B3/2 c3 B|\
 AE CE AB cc| BG E G/2G/2 B/2B/2 c/2c/2 d c/2B/2| A2 cd ec Ac| B4 A3 z|\
